src/apps/scalable/eartag.svg

<?xml version="1.0" encoding="UTF-8" standalone="no"?>
<svg
   width="64"
   height="64"
   version="1.1"
   id="svg6"
   sodipodi:docname="eartag.svg"
   inkscape:version="1.3.2 (091e20ef0f, 2023-11-25)"
   xmlns:inkscape="http://www.inkscape.org/namespaces/inkscape"
   xmlns:sodipodi="http://sodipodi.sourceforge.net/DTD/sodipodi-0.dtd"
   xmlns:xlink="http://www.w3.org/1999/xlink"
   xmlns="http://www.w3.org/2000/svg"
   xmlns:svg="http://www.w3.org/2000/svg">
  <sodipodi:namedview
     id="namedview6"
     pagecolor="#ffffff"
     bordercolor="#111111"
     borderopacity="1"
     inkscape:showpageshadow="0"
     inkscape:pageopacity="0"
     inkscape:pagecheckerboard="1"
     inkscape:deskcolor="#d1d1d1"
     inkscape:zoom="10.197806"
     inkscape:cx="39.763455"
     inkscape:cy="29.271002"
     inkscape:window-width="1920"
     inkscape:window-height="1011"
     inkscape:window-x="0"
     inkscape:window-y="0"
     inkscape:window-maximized="1"
     inkscape:current-layer="svg6" />
  <defs
     id="defs4">
    <linearGradient
       id="linearGradient11"
       inkscape:collect="always">
      <stop
         style="stop-color:#000000;stop-opacity:1;"
         offset="0.91490453"
         id="stop11" />
      <stop
         style="stop-color:#000000;stop-opacity:0;"
         offset="1"
         id="stop12" />
    </linearGradient>
    <linearGradient
       id="linearGradient1"
       inkscape:collect="always">
      <stop
         style="stop-color:#956f00;stop-opacity:1;"
         offset="0"
         id="stop5" />
      <stop
         style="stop-color:#503e00;stop-opacity:1;"
         offset="1"
         id="stop6" />
    </linearGradient>
    <linearGradient
       id="linearGradient862-3"
       x1="7.9373"
       x2="7.9373"
       y1="15.081"
       y2="1.852"
       gradientTransform="scale(3.7796)"
       gradientUnits="userSpaceOnUse">
      <stop
         stop-color="#f1efeb"
         offset="0"
         id="stop1" />
      <stop
         stop-color="#fdfcfc"
         offset="1"
         id="stop2" />
    </linearGradient>
    <linearGradient
       id="linearGradient6"
       x1="32"
       x2="32"
       y1="60"
       y2="8"
       gradientUnits="userSpaceOnUse"
       gradientTransform="translate(69.835878,0.75342748)">
      <stop
         stop-color="#ffe03d"
         offset="0"
         id="stop3" />
      <stop
         stop-color="#fff243"
         offset="1"
         id="stop4" />
    </linearGradient>
    <linearGradient
       id="linearGradient971"
       x1="7.9373002"
       x2="7.9373002"
       y1="15.081"
       y2="1.852"
       gradientTransform="matrix(3.7796,0,0,3.7796,-2.3180445e-5,0.03040052)"
       gradientUnits="userSpaceOnUse">
      <stop
         stop-color="#ffc30d"
         offset="0"
         id="stop1-3" />
      <stop
         stop-color="#fff63f"
         offset="1"
         id="stop2-6" />
    </linearGradient>
    <linearGradient
       inkscape:collect="always"
       xlink:href="#linearGradient971"
       id="linearGradient10"
       gradientUnits="userSpaceOnUse"
       gradientTransform="matrix(3.7796,0,0,3.7796,-2.266e-5,0.0304007)"
       x1="7.9373002"
       y1="15.081"
       x2="7.9373002"
       y2="1.852" />
    <filter
       inkscape:collect="always"
       style="color-interpolation-filters:sRGB"
       id="filter10"
       x="-0.069121207"
       y="-0.069118796"
       width="1.1382424"
       height="1.1382376">
      <feGaussianBlur
         inkscape:collect="always"
         stdDeviation="1.6128844"
         id="feGaussianBlur10" />
    </filter>
    <linearGradient
       inkscape:collect="always"
       xlink:href="#linearGradient1"
       id="linearGradient7-5"
       x1="30.439011"
       y1="17.752529"
       x2="30.439011"
       y2="48.027397"
       gradientUnits="userSpaceOnUse"
       gradientTransform="rotate(45,22.771411,25.856597)" />
    <filter
       inkscape:collect="always"
       style="color-interpolation-filters:sRGB"
       id="filter11"
       x="-0.13438283"
       y="-0.16223193"
       width="1.2687657"
       height="1.3244639">
      <feGaussianBlur
         inkscape:collect="always"
         stdDeviation="2.1907088"
         id="feGaussianBlur11" />
    </filter>
    <radialGradient
       inkscape:collect="always"
       xlink:href="#linearGradient11"
       id="radialGradient12"
       cx="46.944336"
       cy="16.859375"
       fx="46.944336"
       fy="16.859375"
       r="8.9072118"
       gradientTransform="matrix(1.0070464,0,0,1.007161,-0.33078823,-0.12073011)"
       gradientUnits="userSpaceOnUse" />
  </defs>
  <path
     id="rect2"
     style="opacity:0.26;mix-blend-mode:normal;fill:#000000;fill-opacity:1;filter:url(#filter10)"
     d="M 17.001953,3.9980469 C 9.7988524,3.9980469 4,9.7988524 4,17.001953 v 29.996094 c 0,7.203101 5.7988524,13.003906 13.001953,13.003906 H 47 c 7.203101,0 13.001953,-5.800805 13.001953,-13.003906 V 17.001953 C 60.001953,9.7988524 54.203101,3.9980469 47,3.9980469 Z m 29.943359,4.6601562 a 8.2009211,8.2009211 0 0 1 8.199219,8.2011719 8.2009211,8.2009211 0 0 1 -8.199219,8.201172 8.2009211,8.2009211 0 0 1 -8.201171,-8.201172 8.2009211,8.2009211 0 0 1 8.201171,-8.2011719 z"
     transform="matrix(0.97754177,0,0,0.94228997,0.00289885,2.9961101)" />
  <path
     id="rect2-3"
     style="fill:url(#linearGradient10)"
     d="m 17.001953,3.9980471 c -7.203101,0 -13.0019527,5.800805 -13.0019527,13.0039059 v 29.996094 c 0,7.203101 5.7988517,13.003906 13.0019527,13.003906 H 47 c 7.203101,0 13.001953,-5.800805 13.001953,-13.003906 V 17.001953 C 60.001953,9.7988521 54.203101,3.9980471 47,3.9980471 Z m 29.943359,4.660156 a 8.2009211,8.2009211 0 0 1 8.199219,8.2011719 8.2009211,8.2009211 0 0 1 -8.199219,8.201172 8.2009211,8.2009211 0 0 1 -8.201171,-8.201172 8.2009211,8.2009211 0 0 1 8.201171,-8.2011719 z" />
  <g
     id="g1"
     transform="translate(0.98136918,1.0464874)">
    <path
       d="m 30.710285,22.335703 -9.796669,9.796669 A 7.4625606,7.4625606 0 0 0 19.699313,30.513307 7.4625606,7.4625606 0 0 0 9.1700292,30.444036 7.4625606,7.4625606 0 0 0 9.0538432,40.975144 7.4625606,7.4625606 0 0 0 19.585045,41.136327 l 11.12547,-11.12547 7.675385,7.675385 -5.958881,5.95888 a 7.4625606,7.4625606 0 0 0 -1.214303,-1.619065 7.4625606,7.4625606 0 0 0 -10.529285,-0.06927 7.4625606,7.4625606 0 0 0 -0.116186,10.531108 7.4625606,7.4625606 0 0 0 10.531204,0.161183 L 46.061611,37.685916 Z"
       fill="#ffc000"
       id="path5"
       style="opacity:0.25;fill:#000000;fill-opacity:1;stroke-width:1.35683;filter:url(#filter11)" />
    <path
       d="m 30.710285,22.335702 -9.796669,9.796669 A 7.4625606,7.4625606 0 0 0 19.699313,30.513306 7.4625606,7.4625606 0 0 0 9.1700291,30.444036 7.4625606,7.4625606 0 0 0 9.0538431,40.975144 7.4625606,7.4625606 0 0 0 19.585045,41.136327 l 11.12547,-11.12547 7.675385,7.675385 -5.958881,5.95888 a 7.4625606,7.4625606 0 0 0 -1.214303,-1.619066 7.4625606,7.4625606 0 0 0 -10.529285,-0.06927 7.4625606,7.4625606 0 0 0 -0.116186,10.531108 7.4625606,7.4625606 0 0 0 10.531204,0.161183 L 46.061611,37.685915 Z"
       fill="#ffc000"
       id="path5-9"
       style="opacity:1;fill:url(#linearGradient7-5);stroke:none;stroke-width:0.657;stroke-dasharray:none;stroke-opacity:1" />
  </g>
  <ellipse
     style="opacity:0.25;fill:none;fill-opacity:1;stroke:url(#radialGradient12);stroke-width:0.781468;stroke-linecap:round;stroke-linejoin:bevel;stroke-dasharray:none"
     id="path11"
     cx="46.944336"
     cy="16.859375"
     rx="8.5792418"
     ry="8.5802622" />
</svg>

<?xml version="1.0" encoding="UTF-8"?>
<svg id="svg6" width="64" height="64" version="1.1" xmlns="http://www.w3.org/2000/svg" xmlns:xlink="http://www.w3.org/1999/xlink">
 <defs id="defs4">
  <linearGradient id="linearGradient10" x1="7.9373" x2="7.9373" y1="15.081" y2="1.852" gradientTransform="matrix(3.7796 0 0 3.7796 -2.266e-5 .030401)" gradientUnits="userSpaceOnUse">
   <stop id="stop1-3" stop-color="#ffc30d" offset="0"/>
   <stop id="stop2-6" stop-color="#fff63f" offset="1"/>
  </linearGradient>
  <filter id="filter10" x="-.069121" y="-.069119" width="1.1382" height="1.1382" color-interpolation-filters="sRGB">
   <feGaussianBlur id="feGaussianBlur10" stdDeviation="1.6128844"/>
  </filter>
  <linearGradient id="linearGradient7-5" x1="30.439" x2="30.439" y1="17.753" y2="48.027" gradientTransform="rotate(45 22.771 25.857)" gradientUnits="userSpaceOnUse">
   <stop id="stop5" stop-color="#956f00" offset="0"/>
   <stop id="stop6" stop-color="#503e00" offset="1"/>
  </linearGradient>
  <filter id="filter11" x="-.13438" y="-.16223" width="1.2688" height="1.3245" color-interpolation-filters="sRGB">
   <feGaussianBlur id="feGaussianBlur11" stdDeviation="2.1907088"/>
  </filter>
  <radialGradient id="radialGradient12" cx="46.944" cy="16.859" r="8.9072" gradientTransform="matrix(1.007 0 0 1.0072 -.33079 -.12073)" gradientUnits="userSpaceOnUse">
   <stop id="stop11" offset=".9149"/>
   <stop id="stop12" stop-opacity="0" offset="1"/>
  </radialGradient>
 </defs>
 <path id="rect2" transform="matrix(.97754 0 0 .94229 .0028988 2.9961)" d="m17.002 3.998c-7.2031 0-13.002 5.8008-13.002 13.004v29.996c0 7.2031 5.7989 13.004 13.002 13.004h29.998c7.2031 0 13.002-5.8008 13.002-13.004v-29.996c0-7.2031-5.7989-13.004-13.002-13.004zm29.943 4.6602a8.2009 8.2009 0 0 1 8.1992 8.2012 8.2009 8.2009 0 0 1-8.1992 8.2012 8.2009 8.2009 0 0 1-8.2012-8.2012 8.2009 8.2009 0 0 1 8.2012-8.2012z" filter="url(#filter10)" opacity=".26" style="mix-blend-mode:normal"/>
 <path id="rect2-3" d="m17.002 3.998c-7.2031 0-13.002 5.8008-13.002 13.004v29.996c0 7.2031 5.7989 13.004 13.002 13.004h29.998c7.2031 0 13.002-5.8008 13.002-13.004v-29.996c0-7.2031-5.7989-13.004-13.002-13.004zm29.943 4.6602a8.2009 8.2009 0 0 1 8.1992 8.2012 8.2009 8.2009 0 0 1-8.1992 8.2012 8.2009 8.2009 0 0 1-8.2012-8.2012 8.2009 8.2009 0 0 1 8.2012-8.2012z" fill="url(#linearGradient10)"/>
 <g id="g1" transform="translate(.98137 1.0465)">
  <path id="path5" d="m30.71 22.336-9.7967 9.7967a7.4626 7.4626 0 0 0-1.2143-1.6191 7.4626 7.4626 0 0 0-10.529-0.069271 7.4626 7.4626 0 0 0-0.11619 10.531 7.4626 7.4626 0 0 0 10.531 0.16118l11.125-11.125 7.6754 7.6754-5.9589 5.9589a7.4626 7.4626 0 0 0-1.2143-1.6191 7.4626 7.4626 0 0 0-10.529-0.06927 7.4626 7.4626 0 0 0-0.11619 10.531 7.4626 7.4626 0 0 0 10.531 0.16118l14.963-14.963z" filter="url(#filter11)" opacity=".25" stroke-width="1.3568"/>
  <path id="path5-9" d="m30.71 22.336-9.7967 9.7967a7.4626 7.4626 0 0 0-1.2143-1.6191 7.4626 7.4626 0 0 0-10.529-0.06927 7.4626 7.4626 0 0 0-0.11619 10.531 7.4626 7.4626 0 0 0 10.531 0.16118l11.125-11.125 7.6754 7.6754-5.9589 5.9589a7.4626 7.4626 0 0 0-1.2143-1.6191 7.4626 7.4626 0 0 0-10.529-0.06927 7.4626 7.4626 0 0 0-0.11619 10.531 7.4626 7.4626 0 0 0 10.531 0.16118l14.963-14.963z" fill="url(#linearGradient7-5)"/>
 </g>
 <ellipse id="path11" cx="46.944" cy="16.859" rx="8.5792" ry="8.5803" fill="none" opacity=".25" stroke="url(#radialGradient12)" stroke-linecap="round" stroke-linejoin="bevel" stroke-width=".78147"/>
</svg>
